T: Tom Ash's March
M: 4/4
L: 1/8
K: Emin
EFGE|:A4 A3B|c2A2 A3B|c2d2 efge|d4 efge|abag e2d2|
c2A2 G2E2|[1G3G G2A2|G4 EFGE:|2A3A A2B2|A4 efge||
abag e2d2|c2d2e2f2|g2g2 g2a2|g2g2 efge|abag e2d2|
c2A2 G2E2|GAGF G2A2|G2G2 EFGE|A2A2 A2B2|c2A2 A3B|
c2d2 efge|d4 efge|abag e2d2|c2A2 G2E2|A2A2 A2B2|A8|
